libs/ui/packages/crypto-icons/src/svg/XBC.svg

<svg width="24" height="24" viewBox="0 0 24 24" fill="none">
<path d="M19.4827 14.8155L19.074 16.4527L17.9827 16.1812L18.3907 14.5432L16.7535 14.1352L17.0257 13.044L18.663 13.452L19.0717 11.8147L20.163 12.087L19.755 13.7242L21.3922 14.1322L21.12 15.2242L19.4827 14.8155ZM15.4575 10.32C15.3052 11.3325 14.7532 11.8245 14.0235 12C15.0217 12.5272 15.5272 13.3402 15.0345 14.7577C14.4225 16.518 12.99 16.674 11.088 16.3177L10.6155 18.2092L9.501 17.9317L9.96675 16.0642C9.66991 15.9908 9.37389 15.914 9.07875 15.834L8.61075 17.709L7.49775 17.4315L7.97025 15.5355C7.70925 15.4687 7.44525 15.3982 7.17525 15.3307L5.724 14.9685L6.285 13.662C6.285 13.662 7.10625 13.8802 7.095 13.8645C7.4115 13.9417 7.5525 13.731 7.60875 13.5907L8.35425 10.5997L8.47275 10.629C8.43489 10.6139 8.39605 10.6014 8.3565 10.5915L8.889 8.45624C8.904 8.21399 8.82375 7.90949 8.3715 7.79624C8.3895 7.78499 7.56225 7.59524 7.56225 7.59524L7.866 6.37724L9.4035 6.76124L9.402 6.76649C9.633 6.82424 9.8715 6.87899 10.1145 6.93374L10.5817 5.06024L11.6962 5.33774L11.238 7.17524C11.5372 7.24274 11.838 7.31174 12.1305 7.38524L12.5857 5.56049L13.701 5.83799L13.2337 7.71224C14.6407 8.19974 15.6675 8.93699 15.4575 10.32ZM12.8872 13.9837C13.2555 12.5062 10.8307 12.1387 10.0747 11.9497L9.45 14.46C10.206 14.6475 12.5362 15.3997 12.8887 13.983L12.8872 13.9837ZM13.2525 10.3117C13.587 8.96699 11.559 8.67899 10.9297 8.52224L10.362 10.8C10.9912 10.9575 12.9307 11.6002 13.2525 10.3117Z" fill="white"/>
<path d="M17.9246 15.1808L17.5159 16.818L16.4246 16.5465L16.8326 14.9085L15.1954 14.5005L15.4676 13.4093L17.1049 13.8173L17.5136 12.18L18.6049 12.4523L18.1969 14.0895L19.8341 14.4975L19.5619 15.5895L17.9246 15.1808ZM13.8994 10.6853C13.7471 11.6978 13.1951 12.1898 12.4654 12.3653C13.4636 12.8925 13.9691 13.7055 13.4764 15.123C12.8644 16.8833 11.4319 17.0393 9.52989 16.683L9.05739 18.5745L7.94289 18.297L8.40864 16.4295C8.1118 16.356 7.81578 16.2793 7.52064 16.1993L7.05264 18.0743L5.93964 17.7968L6.41214 15.9008C6.15114 15.834 5.88714 15.7635 5.61714 15.696L4.16589 15.3338L4.72689 14.0273C4.72689 14.0273 5.54814 14.2455 5.53689 14.2298C5.85339 14.307 5.99439 14.0963 6.05064 13.956L6.79614 10.965L6.91464 10.9943C6.87678 10.9791 6.83795 10.9666 6.79839 10.9568L7.33089 8.82151C7.34589 8.57926 7.26564 8.27476 6.81339 8.16151C6.83139 8.15026 6.00414 7.96051 6.00414 7.96051L6.30789 6.74251L7.84539 7.12651L7.84389 7.13176C8.07489 7.18951 8.31339 7.24426 8.55639 7.29901L9.02364 5.42551L10.1381 5.70301L9.67989 7.54051C9.97914 7.60801 10.2799 7.67701 10.5724 7.75051L11.0276 5.92576L12.1429 6.20326L11.6756 8.07751C13.0826 8.56501 14.1094 9.30226 13.8994 10.6853ZM11.3291 14.349C11.6974 12.8715 9.27264 12.504 8.51664 12.315L7.89189 14.8253C8.64789 15.0128 10.9781 15.765 11.3306 14.3483L11.3291 14.349ZM11.6944 10.677C12.0289 9.33226 10.0009 9.04426 9.37164 8.88751L8.80389 11.1653C9.43314 11.3228 11.3726 11.9655 11.6944 10.677Z" fill="#F7931A"/>
</svg>

<svg width="24" height="24" viewBox="0 0 24 24" fill="none"><path fill="#fff" d="m19.483 14.816-.409 1.637-1.091-.272.408-1.638-1.637-.408.272-1.091 1.637.408.409-1.637 1.091.272-.408 1.637 1.637.408-.272 1.092zm-4.026-4.496c-.152 1.012-.704 1.505-1.434 1.68.999.527 1.504 1.34 1.011 2.758-.612 1.76-2.044 1.916-3.946 1.56l-.472 1.891-1.115-.277.466-1.868a41 41 0 0 1-.888-.23l-.468 1.875-1.113-.277.472-1.896c-.26-.067-.525-.138-.795-.205l-1.451-.362.561-1.307s.821.218.81.202c.317.078.458-.133.514-.273l.745-2.991.119.029a1 1 0 0 0-.117-.037l.533-2.136c.015-.242-.065-.547-.518-.66.018-.011-.809-.2-.809-.2l.304-1.219 1.537.384-.001.005q.348.086.713.168l.467-1.874 1.114.278-.458 1.837q.452.101.893.21l.455-1.825 1.115.278-.467 1.874c1.407.488 2.434 1.225 2.223 2.608m-2.57 3.664c.368-1.478-2.056-1.845-2.812-2.034l-.625 2.51c.756.188 3.086.94 3.439-.477zm.365-3.672c.335-1.345-1.693-1.633-2.322-1.79l-.568 2.278c.63.157 2.569.8 2.89-.488"/><path fill="#f7931a" d="m17.925 15.18-.41 1.638-1.09-.271.408-1.639-1.638-.407.273-1.092 1.637.408.409-1.637 1.09.272-.407 1.637 1.637.409-.272 1.092zm-4.026-4.495c-.152 1.013-.704 1.505-1.434 1.68.999.527 1.504 1.34 1.011 2.758-.612 1.76-2.044 1.916-3.946 1.56l-.473 1.892-1.114-.278.466-1.867q-.446-.11-.888-.23l-.468 1.874-1.113-.277.472-1.896q-.39-.102-.795-.205l-1.451-.362.56-1.307s.822.219.81.203c.317.077.458-.134.515-.274l.745-2.991.119.03a1 1 0 0 0-.117-.038l.533-2.135c.015-.243-.065-.547-.518-.66.018-.012-.809-.201-.809-.201l.304-1.218 1.537.384-.001.005c.23.058.47.112.712.167l.468-1.873 1.114.277-.458 1.838q.452.1.892.21l.456-1.825 1.115.277-.467 1.875c1.407.487 2.433 1.224 2.223 2.607m-2.57 3.664c.368-1.478-2.056-1.845-2.812-2.034l-.625 2.51c.756.188 3.086.94 3.439-.477zm.365-3.672c.335-1.345-1.693-1.633-2.322-1.79l-.568 2.278c.63.158 2.569.8 2.89-.488"/></svg>
